src/assets/Devices/PS5 Gyro.svg

<svg width="952" height="638" viewBox="0 0 952 638" fill="none" xmlns="http://www.w3.org/2000/svg">
<path d="M123.71 32.0151V49.7465C119.499 50.8246 115.299 51.9337 111.114 53.075C84.902 100.544 27.5694 232.789 7.93464 382.016C-14.2996 551 42.9964 640.484 92.0812 634.74C130.648 630.227 155.692 613.68 183.24 538.966C188.227 525.442 192.343 513.068 196.069 501.871C212.923 451.209 221.763 424.638 266.886 424.638H685.114C730.237 424.638 739.077 451.209 755.931 501.871C759.657 513.068 763.773 525.442 768.76 538.966C796.308 613.68 821.352 630.227 859.919 634.74C909.004 640.484 966.3 551 944.065 382.016C924.431 232.789 867.098 100.544 840.886 53.075C836.252 51.8114 831.601 50.5871 826.935 49.4009V32.0151C819.923 25.6636 798.285 11.4563 767.832 5.43908C737.379 -0.578144 711.734 5.94051 702.719 9.952L699.4 25.6133C607.051 13.6516 523.254 12.5525 479.756 12.4656V12.4587C478.546 12.4587 477.293 12.4591 476 12.4602C474.707 12.4591 473.454 12.4587 472.244 12.4587V12.4656C428.539 12.5529 344.15 13.6621 251.281 25.7847L247.927 9.952C238.911 5.94051 213.266 -0.578144 182.813 5.43908C152.36 11.4563 130.722 25.6636 123.71 32.0151Z" stroke="white" stroke-width="6"/>
</svg>

<svg width="952" height="638" fill="none" xmlns="http://www.w3.org/2000/svg"><path d="M123.71 32.015v17.731a835.192 835.192 0 0 0-12.596 3.329C84.902 100.544 27.569 232.789 7.934 382.016-14.3 551 42.997 640.484 92.082 634.74c38.567-4.513 63.611-21.06 91.159-95.774 4.987-13.524 9.103-25.898 12.829-37.095 16.854-50.662 25.694-77.233 70.817-77.233h418.228c45.123 0 53.963 26.571 70.817 77.233 3.726 11.197 7.842 23.571 12.829 37.095 27.548 74.714 52.592 91.261 91.159 95.774 49.085 5.744 106.381-83.74 84.146-252.724-19.634-149.227-76.967-281.472-103.179-328.941a835.902 835.902 0 0 0-13.951-3.674V32.015c-7.012-6.351-28.65-20.559-59.103-26.576-30.453-6.017-56.098.502-65.113 4.513l-3.32 15.661c-92.349-11.961-176.146-13.06-219.644-13.147v-.007L476 12.46l-3.756-.001v.007c-43.705.087-128.094 1.196-220.963 13.319l-3.354-15.833c-9.016-4.011-34.661-10.53-65.114-4.513-30.453 6.017-52.091 20.225-59.103 26.576Z" stroke="#fff" stroke-width="6"/></svg>
